!!!OTL: 349. Anna und der Faehnrich. / [Die alte Ulingersage im Kindermund.]
!!!ARE: Europa, Mitteleuropa, Deutschland, Kassel
!!!SCT: K2349
!!!TXL: @@DE
!!!YEM: Copyright 1995, estate of Helmut Schaffrath.
**kern	**text
*clefG2	*
*M2/4	*
*k[b-e-a-]	*
*E-:	*
{8B-	Als
8e-	die
=1	=1
8g	wun-
8b-	-der-
8b-	-ſchö-
8b-	-ne
=2	=2
8a-	An-
8g	-na
8f	auf
8e-	dem
=3	=3
8b-	Brei-
8f	-ten-
8f	-ſtei-
8f	-ne
=4	=4
4f	ſaß,
8r}	.
{8ee-	und
=5	=5
8b-	kröll-
8a-	-te
8g	ih-
8f	-re
=6	=6
4e-	ſchwarʒ-
8e-	-brau-
8e-	-nen
=7	=7
4cc	Haa-
8cc	-re
8cc	ſo
=8	=8
(4ee-	ſchön,
8dd)}	.
{8cc	und
=9	=9
8b-	kröll-
8a-	-te
8g	ih-
8f	-re
=10	=10
4e-	ſchwarʒ-
8e-	-brau-
8g	-nen
=11	=11
4b-	Haa-
[8b-	-re
8b-]	ſo
=12	=12
4e-}	ſchön.
==	==
!!!AGN: Kinder - Lied, Reigen, Tanz - Spiel, Sage, Ballade
!!!ONB: ESAC (Essen Associative Code) Database: KINDER
!!!AMT: simple duple
!!!AIN: vox
!!!EED: Helmut Schaffrath
!!!EEV: 1.0
!!@@COMMENT:"Dieſes und folgende Spiele behandeln die alte Ballade über die Sage vom Mädchenräuber "Ritter Ulinger" (Liederhort J. Rr. 41). Abweichende Lesarten in Text und Mel. bei Wolfram & Becker. 
!!Hier nach der Faſſung bei Lewalter. Vergl. Liederhort J. 146. Mündal Nr. 10. Böckel Nr. 103. Die Melodien bei Wolfram & Becker ſind ſchöner. - Den Reim ſingen die Kinder im Kreiſe 
!!ſtillſtehend. Jn der Mitte ſitʒt ein die Anna vorſtellendes Mädchen. Auch der Jäger (der böſe Heinrich) tritt als Mörder hinʒu, ſodaß die Ausführung des Kinderſpiels dramatiſch wird."
!!@@END:
!!Lewalter J. 25. Wolfram Rr. 392. Becker Nr. 17.
!!!GTL: Zweites Buch. Kinderspiel: 2. Reigen und Tanzspiele. / F. Ringeltaenze ueber alte Balladen- und Maerchenstoffe.
!!!URL-scan: https://archive.org/details/DeutschesKinderliedUndKinderspiel/page/545/mode/1up
!!!ENC: Anna Maria Matuszewska
!!!EEV: 2024/05/09
*-	*-
